static/assets/img/icons/theme/files/import.svg

<svg height="24" viewBox="0 0 24 24" width="24" xmlns="http://www.w3.org/2000/svg"><g fill="none" fill-rule="evenodd"><path d="m0 0h24v24h-24z" opacity="0"/><g fill="#000"><rect height="12" opacity=".3" rx="1" transform="matrix(-1 0 0 -1 24 14)" width="2" x="11" y="1"/><path d="m17 8c-.5522847 0-1-.44771525-1-1s.4477153-1 1-1h1c2.209139 0 4 1.790861 4 4v8c0 2.209139-1.790861 4-4 4h-12c-2.209139 0-4-1.790861-4-4v-8.00694311c0-2.20913899 1.790861-4 4-4h1.00000482c.55228475 0 1 .44771525 1 1s-.44771525 1-1 1h-1.00000482c-1.1045695 0-2 .8954305-2 2v8.00694311c0 1.1045695.8954305 2 2 2h12c1.1045695 0 2-.8954305 2-2v-8c0-1.1045695-.8954305-2-2-2z" fill-rule="nonzero" opacity=".3"/><path d="m14.2928932 10.2928932c.3905243-.39052427 1.0236893-.39052427 1.4142136 0 .3905243.3905243.3905243 1.0236893 0 1.4142136l-3 3c-.3905243.3905243-1.0236893.3905243-1.4142136 0l-2.99999998-3c-.39052429-.3905243-.39052429-1.0236893 0-1.4142136.39052429-.39052427 1.02368927-.39052427 1.41421356 0l2.29289322 2.2928932z" fill-rule="nonzero"/></g></g></svg>

<svg width="24px" height="24px" viewBox="0 0 24 24" version="1.1" xmlns="http://www.w3.org/2000/svg" xmlns:xlink="http://www.w3.org/1999/xlink">
    <title>Icon For Import</title>
    <g stroke="none" stroke-width="1" fill="none" fill-rule="evenodd">
        <rect opacity="0" x="0" y="0" width="24" height="24"></rect>
        <rect fill="#000000" opacity="0.3" transform="translate(12.000000, 7.000000) rotate(-180.000000) translate(-12.000000, -7.000000) " x="11" y="1" width="2" height="12" rx="1"></rect>
        <path d="M17,8 C16.4477153,8 16,7.55228475 16,7 C16,6.44771525 16.4477153,6 17,6 L18,6 C20.209139,6 22,7.790861 22,10 L22,18 C22,20.209139 20.209139,22 18,22 L6,22 C3.790861,22 2,20.209139 2,18 L2,9.99305689 C2,7.7839179 3.790861,5.99305689 6,5.99305689 L7.00000482,5.99305689 C7.55228957,5.99305689 8.00000482,6.44077214 8.00000482,6.99305689 C8.00000482,7.54534164 7.55228957,7.99305689 7.00000482,7.99305689 L6,7.99305689 C4.8954305,7.99305689 4,8.88848739 4,9.99305689 L4,18 C4,19.1045695 4.8954305,20 6,20 L18,20 C19.1045695,20 20,19.1045695 20,18 L20,10 C20,8.8954305 19.1045695,8 18,8 L17,8 Z" fill="#000000" fill-rule="nonzero" opacity="0.3"></path>
        <path d="M14.2928932,10.2928932 C14.6834175,9.90236893 15.3165825,9.90236893 15.7071068,10.2928932 C16.0976311,10.6834175 16.0976311,11.3165825 15.7071068,11.7071068 L12.7071068,14.7071068 C12.3165825,15.0976311 11.6834175,15.0976311 11.2928932,14.7071068 L8.29289322,11.7071068 C7.90236893,11.3165825 7.90236893,10.6834175 8.29289322,10.2928932 C8.68341751,9.90236893 9.31658249,9.90236893 9.70710678,10.2928932 L12,12.5857864 L14.2928932,10.2928932 Z" fill="#000000" fill-rule="nonzero"></path>
    </g>
</svg>
